X:1
T:6 vierstimmige Hymnen oder Figural-Gesänge
T:Wie heilig ist diese Stätte
T:Friedrich Silcher
T:Wie heilig ist diese Stätte
T:Op. 10, No. 6
T:CPDL   —   Creative Commons Attribution Non Commercial 3.0
T:CPDL   —   Creative Commons Attribution Non Commercial 3.0
T:CPDL   —   Creative Commons Attribution Non Commercial 3.0
T:CPDL   —   Creative Commons Attribution Non Commercial 3.0
T:CPDL   —   Creative Commons Attribution Non Commercial 3.0
T:CPDL   —   Creative Commons Attribution Non Commercial 3.0
C:Friedrich Silcher
Z:CPDL   —   Creative Commons Attribution Non Commercial 3.0
%%score [ ( 1 2 ) ( 3 4 ) 5 ]
L:1/8
Q:1/4=120
M:4/2
K:F
V:1 treble nm="Sopran\nAlt"
V:2 treble 
V:3 treble-8 nm="Tenor"
V:4 treble-8 
V:5 bass nm="Bass"
V:1
"^Adagio" z4 | z16 | z16 | z16 | z16 | z16 | z16 | z16 | z16 || %9
w: |||||||||
[M:4/4]!mf![Q:1/4=100]"^Andante" c3 B A2 d2 | c6 c2 |!<(! F3 G A2 B2!<)! |!>(! A4 G2!>)!!p! c2 | %13
w: Herr, ich ha- be|lieb die|Stät- te dei- nes|Hau- ses, ich|
 c6 c2 | c2 f2 e2 d2 |!mf! c6 c2 | (c2 f2) e2!f! d2 | c3 c A2 d2 |!>(! c4 =B2!>)!!mf! z2 | z8 | %20
w: ha- be|lieb, ich ha- be|lieb die|Stät- * te, die|Stät- te dei- nes|Hau- ses,||
!>(! z4 z2!>)!!<(! GG!<)! |!f! e2 e2 e2 d2 |!>(! c4!>)! c2 =B2 |!<(! A3 A!<)! Gc =BA | %24
w: und den|Ort, da dei- ne|Eh- re, da|dei- ne Eh- * re *|
!>(! (G3 F) E2!>)!"^cresc." Gc | (c2 =BA B2 d2- | d2 c=B) c2!p! ee | (d6 f2 | edc=B AB) cA | %29
w: woh- * net, dei- ne|Eh- * * * *|* * * re, dei- ne|Eh- *|* * * * * * re *|
!<(! (G4 c4-!<)! |!>(! c2 =BA B4)!>)! | c4 z4 |!mf! c3 B A2 d2 | c6 c2 |!<(! F3 G A2 B2!<)! | %35
w: woh- *||net.|Herr, ich ha- be|lieb die|Stät- te dei- nes|
!>(! A4 G2!>)!!p! c2 | c6 c2 | c2 f2 e2 d2 |!mf! c6 c2 | (c2 f2) e2!f! d2 | c3 A A2 B2 | %41
w: Hau- ses, ich|ha- be|lieb, ich ha- be|lieb die|Stät- * te, die|Stät- te dei- nes|
!>(! (A3 G) F2!>)!!f! FF | d2 d2 d2 d2 | (!>!c3 d) c2 cc | !>!B6 B2 |!>(! (A3 B) c2!>)!!f! c2 | %46
w: Hau- * ses und den|Ort, da dei- ne|Eh- * re, dei- ne|Eh- re|woh- * net, da|
 (f2 e2 d2) c2 | (!>!B3 d cB) AG |!>(! (F4 AGFG)!>)! | A4 z2!f! c2 | (f2 e2 d2) c2 | %51
w: dei- * * ne|Eh- * * * re *|woh- * * * *|net, da|dei- * * ne|
 (!>!B3 d cB) AG |!>(! (F4- FEAG) | F2!>)!!mf! cc!>(! dc!>)! BA | (G2 AG cBAB) | %55
w: Eh- * * * re *|woh- * * * *|net, dei- ne Eh- * re _|woh- * * * * * *|
 A2!p!!<(! AA!<)! BA GF |!p! (E2[Q:1/4=88]"^riten." FE!>(! AGFG) | F4!>)! z4 |] %58
w: net, dei- ne Eh- * re _|woh- * * * * * *|net.|
V:2
 x4 | x16 | x16 | x16 | x16 | x16 | x16 | x16 | x16 ||[M:4/4] F3 F F2 F2 | F6 C2 | D3 E F2 G2 | %12
w: ||||||||||||
 F4 E2 z2 | z2!p! E2 F2 G2 | F2 z2 z4 | z2!mf! E2 F2 G2 | F2 z2 z2 F2 | G3 G A2 A2 | G4 G2 G2 | %19
w: |ich ha- be|lieb,|ich ha- be|lieb *||* * die|
 E3 E A2 F2 | E4 D2 GG | G2 G2 G2 G2 | E4 E2 G2 | F3 F G2 E2 | D4 C2 EE | (D6 F2 | E4) E2 GG | %27
w: Stät- te dei- nes|Hau- ses * *|||||||
 G8- | (G4 FG) AF | (E8 | D6 EF) | E4 x4 | F3 F F2 F2 | F6 C2 | D3 E F2 G2 | F4 E2 z2 | %36
w: |||||||||
 z2!p! E2 F2 G2 | F2 z2 z4 | z2!mf! E2 F2 G2 | F2 z2 z2 B2 | A3 F F2 G2 | (F2 E2) F2 FF | %42
w: ich ha- be|lieb,|ich ha- be|lieb *|||
 F2 F2 F2 F2 | G4 A2 FF | (F2 GF E2) FG | (F3 G) A2 A2 | (A2 G2 F2) F2 | (D6 D2) | (C4 FEDE) | %49
w: |||||||
 F4 x2 A2 | (A2 G2 F2) F2 | (D6 D2) | (C6 E2) | F2 AA BA GF | (E2 FE AGFG) | F2 z2 z4 | C8 | %57
w: ||||||||
 C4 x4 |] %58
w: |
V:3
!p!!<(! F4!<)! |!>(! A8!>)! G4!<(! G4!<)! |!>(! B8 A2!>)! A2 d2 c2 |!<(! (c12!<)!!>(! B4)!>)! | %4
w: Wie|hei- lig, wie|hei- lig ist die- se|Stät- *|
 A8 z4 c4 |"^cresc." c8 e4 e4 | d8 f2 f2 e2 d2 |!>(! (c12 =B4)!>)! | c8 z8 || %9
w: te! Wie|hei- lig, wie|hei- lig ist die- se|Stät- *|te!|
[M:4/4]!mf! A3 d c2 B2 | A6 G2 |!<(! A3 c c2 d2!<)! |!>(! c4 c2!>)! z2 | z2!p! G2 A2 B2 | %14
w: Herr, ich ha- be|lieb die|Stät- te dei- nes|Hau- ses,|ich ha- be|
 A2 z2 z4 | z2!mf!!<(! G2 A2 B2!<)! | A2 z2 z2!f! A=B | c3 c c2 f2 |!>(! e4 d2!>)!!mf! e2 | %19
w: lieb,|ich ha- be|lieb die *|Stät- te dei- nes|Hau- ses, die|
 c3 c c2 d2 |!>(! c4 =B2!>)!!<(! GG!<)! |!f! c2 c2 c2 =B2 |!>(! A4!>)! A2 G2 |!<(! c3 c!<)! c2 c2 | %24
w: Stät- te dei- nes|Hau- ses und den|Ort, da dei- ne|Eh- re, da|dei- ne Eh- re|
!>(! G4 G2!>)!"^cresc." GG | G8- | G4 G2!p! cc | (c2 =BA B2 d2 | c6) c2 |!<(! (c4 G4-!<)! | %30
w: woh- net, dei- ne|Eh-|* re, dei- ne|Eh- * * * *|* re|woh- *|
!>(! G8)!>)! | G4 z4 |!mf! A3 d c2 B2 | A6 G2 |!<(! A3 c c2 d2!<)! |!>(! c4 c2!>)! z2 | %36
w: |net.|Herr, ich ha- be|lieb die|Stät- te dei- nes|Hau- ses,|
 z2!p!!<(! G2 A2 B2!<)! | A2 z2 z4 | z2!mf!!<(! G2 A2 B2!<)! | A2 z2 z2!f! de | f3 c d2 d2 | %41
w: ich ha- be|lieb,|ich ha- be|lieb die *|Stät- te dei- nes|
!>(! (c2 B2) A2!>)!!f! AA | B2 B2 B2 d2 | !>!e4 f2 cc | (!>!d4 c2) c2 |!>(! (c3 B) A2!>)!!f! A2 | %46
w: Hau- * ses und den|Ort, da dei- ne|Eh- re, dei- ne|Eh- * re|woh- * net, da|
 (d2 ^c2 d2) A2 | (!>!B4 G2) d2 |!>(! (A4 c4)!>)! | c4 z2!f! A2 | (d2 ^c2 d2) A2 | (!>!B4 G2) d2 | %52
w: dei- * * ne|Eh- * re|woh- *|net, da|dei- * * ne|Eh- * re|
!>(! (A4 G2 B2) | A2!>)! z2 z4 |!mf! c8 | c2!p!!<(! cc!<)! dc BA | (G2 AG!>(! cBAB) | A4!>)! z4 |] %58
w: woh- * *|net,|woh-|net, dei- ne Eh- * re _|woh- * * * * * *|net.|
V:4
 F4 | F8 E4 G4 | G8 F2 F2 F2 F2 | (F4 D4 E8) | F8 x4 A4 | G8 c4 c4 | A8 A2 A2 G2 F2 | (E8 D6 F2) | %8
 E8 x8 ||[M:4/4] x8 | x8 | x8 | x8 | x8 | x8 | x8 | x8 | x8 | x8 | x8 | x8 | x8 | x8 | x8 | x8 | %25
 x8 | x8 | x8 | x8 | x8 | x8 | x8 | x8 | x8 | x8 | x8 | x8 | x8 | x8 | x8 | x8 | x8 | x8 | x8 | %44
 x8 | x8 | x8 | x8 | x8 | x8 | x8 | x8 | x8 | x8 | x8 | x8 | x8 | x8 |] %58
V:5
!p!!<(! F,4!<)! |!>(! C,8!>)! C,4!<(! G,4!<)! |!>(! D,8 D,2!>)! D,2 B,,2 A,,2 | %3
w: |||
!<(! (G,,8!<)!!>(! C,8)!>)! | F,8 z4 F,4 |"^cresc." E,8 G,4 A,4 | F,8 D,2 D,2 E,2 F,2 | %7
w: ||||
!>(! (G,8 G,,8)!>)! | C,8 z8 ||[M:4/4]!mf! F,3 F, F,2 F,2 | F,6 E,2 |!<(! D,3 C, F,2 B,,2!<)! | %12
w: |||||
!>(! C,4 C,2!>)! z2 | z2!p! C,2 C,2 C,2 | F,2 z2 z4 | z2!mf!!<(! C,2 C,2 C,2!<)! | %16
w: ||||
 F,2 z2 z2!f! F,2 | E,3 E, F,2 F,2 |!>(! G,4 G,2!>)!!mf! E,2 | A,3 A, F,2 F,2 | %20
w: ||||
!>(! G,4 G,,2!>)!!<(! G,G,!<)! |!f! C,2 E,2 G,2 G,,2 |!>(! (A,,2 C,2)!>)! E,2 E,2 | %23
w: |||
!<(! F,3 F,!<)! E,2 C,2 |!>(! =B,,4 C,2!>)!"^cresc." C,C, | (G,,6 =B,,2 | C,4) C,2!p! C,E, | %27
w: ||||
 (G,6 =B,2 | C2 E,2 F,2) F,2 |!<(! (G,4 E,2 C,2!<)! |!>(! G,,8)!>)! | C,4 z4 |!mf! F,3 F, F,2 F,2 | %33
w: ||||||
 F,6 E,2 |!<(! D,3 C, F,2 B,,2!<)! |!>(! C,4 C,2!>)! z2 | z2!p!!<(! C,2 C,2 C,2!<)! | F,2 z2 z4 | %38
w: |||||
 z2!mf!!<(! C,2 C,2 C,2!<)! | F,2 z2 z2!f! F,2 | F,3 F, D,2 B,,2 |!>(! C,4 D,2!>)!!f! D,D, | %42
w: ||||
 B,,2 D,2 F,2 B,2 | !>!B,4 A,2 A,A, | (!>!G,4 C,2) D,E, |!>(! F,4 F,2!>)!!f! F,E, | %46
w: ||||
 (D,2 A,,2 B,,2) F,2 | (!>!G,4 G,,2) B,,2 |!>(! C,8!>)! | F,4 z2!f! F,E, | (D,2 A,,2 B,,2) F,2 | %51
w: |||||
 (!>!G,4 G,,2) B,,2 |!>(! C,8 | F,2!>)! z2 z4 |!mf! C,8 | F,2 z2 z4 |!p! C,8 | F,4 z4 |] %58
w: |||woh-|net,|woh-|net.|

